public/img/right.svg

<svg width="7" height="15" viewBox="0 0 7 15" fill="none" xmlns="http://www.w3.org/2000/svg">
<g clip-path="url(#clip0_98_2286)">
<path d="M2.13485 11.673C2.08175 11.6737 2.0291 11.6629 1.98029 11.6412C1.93148 11.6196 1.88759 11.5877 1.85144 11.5474C1.68949 11.38 1.68949 11.1204 1.85144 10.9529L5.21184 7.47796L1.85144 4.01137C1.68949 3.8439 1.68949 3.58433 1.85144 3.41686C2.01339 3.24939 2.26441 3.24939 2.42635 3.41686L6.06207 7.19326C6.22401 7.36073 6.22401 7.62031 6.06207 7.78778L2.41826 11.5474C2.33728 11.6312 2.23202 11.673 2.13485 11.673Z" fill="#B4B4B4"/>
</g>
<defs>
<clipPath id="clip0_98_2286">
<rect width="5.66815" height="13.3974" fill="white" transform="translate(0.92041 0.787598)"/>
</clipPath>
</defs>
</svg>

<svg xmlns="http://www.w3.org/2000/svg" width="7" height="15" fill="none"><g clip-path="url(#a)"><path fill="#B4B4B4" d="M2.135 11.673a.37.37 0 0 1-.284-.126.424.424 0 0 1 0-.594l3.36-3.475-3.36-3.467a.424.424 0 0 1 0-.594.39.39 0 0 1 .575 0l3.636 3.776a.424.424 0 0 1 0 .595l-3.644 3.76a.4.4 0 0 1-.283.125"/></g><defs><clipPath id="a"><path fill="#fff" d="M.92.788h5.668v13.397H.92z"/></clipPath></defs></svg>
